X: 4
T: AVANT DEUX D' ERCEE
M: 4/4
L: 1/8
Q:1/4=120
K:G
|B3/2 z/2 G3/2 z/2 GGFE|c3/2 z/2 A3/2 z/2 FFED|d3/2 z/2 B3/2 z/2 GGFE|c3
/2 z/2 A3/2 z/2 FFEF|
G3/2 z/2 A3/2 z/2 G3/2 z/2 B3/2 z/2 |G3/2 z/2 GG FEc3/2 z/2 |A3/2 z/2 FF
 EDd3/2 z/2 |B3/2 z/2 GG FEc3/2 z/2 |
A3/2 z/2 FF EFG3/2 z/2 |A3/2 z/2 G3/2 z/2 GABG/2G/2|GABG dddd|cBAF/2F/2 
FGAF/2F/2|
FGAF dddc|BABG GABG/2G/2|GABG dddd|cBAF/2F/2 FGAF/2F/2|
FGAF dddc|BABG G3/2 z/2 A3/2 z/2 |G3/2|
